X: 4
T: the Raftsman
C: trad. Maine
R: jig
Z: 2020 John Chambers <jc:trillian.mit.edu>
S: http://www.evergreentrad.com/the-raftsman/
M: 6/8
L: 1/8
K: G
D | G2G A2B | G3  D2D | E2E D2D | D3- D2  \
B | d2d e2e | B2A G2D | GGG G2B | A3- A2 ||
B | d2d e2d | BA2 z2D | G2G G2B | d3 H(d2 \
B)| A2A B2A | AG2 E2D | G2E D2D | D3 z2  |]

%%sep 1 1 500

